src/containers/site/SiteAboutScreen/asset/about__career.svg

<svg width="94" height="77" viewBox="0 0 94 77" fill="none" xmlns="http://www.w3.org/2000/svg">
<path d="M53.163 17C52.1526 17 51.3259 16.1894 51.3259 15.1987C51.3259 8.80397 46.0215 3.60265 39.5 3.60265C32.9785 3.60265 27.6741 8.80397 27.6741 15.1987C27.6741 16.1894 26.8474 17 25.837 17C24.8267 17 24 16.1894 24 15.1987C24 6.82252 30.9578 0 39.5 0C48.0422 0 55 6.82252 55 15.1987C55 16.1894 54.1733 17 53.163 17Z" fill="url(#paint0_linear)"/>
<path d="M73.1871 14H5.81286C4.80317 14 4 14.814 4 15.8372V63.1628C4 64.186 4.80317 65 5.81286 65H73.1871C74.1968 65 75 64.186 75 63.1628V15.8372C75 14.8372 74.1968 14 73.1871 14Z" fill="url(#paint1_linear)"/>
<path d="M74 77C85.0457 77 94 67.8218 94 56.5C94 45.1782 85.0457 36 74 36C62.9543 36 54 45.1782 54 56.5C54 67.8218 62.9543 77 74 77Z" fill="url(#paint2_linear)"/>
<path d="M74 66C72.9 66 72 65.1671 72 64.1491V49.8509C72 48.8329 72.9 48 74 48C75.1 48 76 48.8329 76 49.8509V64.1491C76 65.1671 75.1 66 74 66Z" fill="white"/>
<path d="M81.1491 59H66.8509C65.8329 59 65 58.1 65 57C65 55.9 65.8329 55 66.8509 55H81.1491C82.1671 55 83 55.9 83 57C83 58.1 82.1671 59 81.1491 59Z" fill="white"/>
<path d="M39.6704 44.9902C36.3739 44.9902 33.0543 44.0062 30.2418 42.0611C30.2188 42.0382 30.1957 42.0153 30.1727 42.0153L0.711241 19.269C-0.0956054 18.6511 -0.233922 17.507 0.388503 16.706C1.01093 15.9051 2.16356 15.7678 2.97041 16.3857L32.3857 39.1091C36.7427 42.1068 42.5981 42.1068 46.9551 39.1091L75 17.9902C75.8068 17.3723 76.9595 17.5325 77.5819 18.3334C78.2043 19.1344 78.043 20.2786 77.2361 20.8964L49.1681 42.0153C49.1451 42.0382 49.122 42.0382 49.099 42.0611C46.2865 44.0062 42.9669 44.9902 39.6704 44.9902Z" fill="white"/>
<defs>
<linearGradient id="paint0_linear" x1="24.012" y1="17.0054" x2="55.0035" y2="17.0054" gradientUnits="userSpaceOnUse">
<stop stop-color="#FFB300"/>
<stop offset="1" stop-color="#FF8E37"/>
</linearGradient>
<linearGradient id="paint1_linear" x1="3.99766" y1="65.0107" x2="75.0091" y2="65.0107" gradientUnits="userSpaceOnUse">
<stop stop-color="#FFB300"/>
<stop offset="1" stop-color="#FF8E37"/>
</linearGradient>
<linearGradient id="paint2_linear" x1="53.9807" y1="77.0027" x2="93.999" y2="77.0027" gradientUnits="userSpaceOnUse">
<stop stop-color="#5C8BFC"/>
<stop offset="1" stop-color="#84B0FF"/>
</linearGradient>
</defs>
</svg>

<svg width="94" height="77" fill="none" xmlns="http://www.w3.org/2000/svg"><path d="M53.163 17c-1.01 0-1.837-.81-1.837-1.801 0-6.395-5.304-11.596-11.826-11.596S27.674 8.804 27.674 15.199c0 .99-.827 1.801-1.837 1.801S24 16.19 24 15.199C24 6.823 30.958 0 39.5 0S55 6.823 55 15.199c0 .99-.827 1.801-1.837 1.801z" fill="url(#paint0_linear)"/><path d="M73.187 14H5.813C4.803 14 4 14.814 4 15.837v47.326C4 64.186 4.803 65 5.813 65h67.374c1.01 0 1.813-.814 1.813-1.837V15.837c0-1-.803-1.837-1.813-1.837z" fill="url(#paint1_linear)"/><path d="M74 77c11.046 0 20-9.178 20-20.5S85.046 36 74 36s-20 9.178-20 20.5S62.954 77 74 77z" fill="url(#paint2_linear)"/><path d="M74 66c-1.1 0-2-.833-2-1.85v-14.3c0-1.017.9-1.85 2-1.85s2 .833 2 1.85v14.3c0 1.017-.9 1.85-2 1.85z" fill="#fff"/><path d="M81.15 59h-14.3c-1.017 0-1.85-.9-1.85-2s.833-2 1.85-2h14.3c1.017 0 1.85.9 1.85 2s-.833 2-1.85 2zM39.67 44.99c-3.296 0-6.616-.984-9.428-2.929-.023-.023-.046-.046-.07-.046L.713 19.27a1.814 1.814 0 01-.323-2.563 1.845 1.845 0 012.581-.32l29.416 22.723c4.357 2.998 10.212 2.998 14.57 0L75 17.99a1.849 1.849 0 012.582.343 1.817 1.817 0 01-.346 2.563l-28.068 21.12c-.023.022-.046.022-.069.045a16.611 16.611 0 01-9.429 2.93z" fill="#fff"/><defs><linearGradient id="paint0_linear" x1="24.012" y1="17.005" x2="55.004" y2="17.005" gradientUnits="userSpaceOnUse"><stop stop-color="#FFB300"/><stop offset="1" stop-color="#FF8E37"/></linearGradient><linearGradient id="paint1_linear" x1="3.998" y1="65.011" x2="75.009" y2="65.011" gradientUnits="userSpaceOnUse"><stop stop-color="#FFB300"/><stop offset="1" stop-color="#FF8E37"/></linearGradient><linearGradient id="paint2_linear" x1="53.981" y1="77.003" x2="93.999" y2="77.003" gradientUnits="userSpaceOnUse"><stop stop-color="#5C8BFC"/><stop offset="1" stop-color="#84B0FF"/></linearGradient></defs></svg>
